!!! OTL: Berkowitz164
!!! Chapter: 1
!!! Section: I
!!! Page: 36
!!! Mode: 
!!! Encoder: DJB
**kern
*staff1
*I"Piano
=1-
*clefG2
*k[f#]
*G:
*M3/4
4g/
4b\
4dd\
=2
4.dd\
8cc\
4b\
=3
8a/L
8b/J
4cc\
8cc\L
8dd\J
=4
4cc\
2b\
=5
4g/
4cc\
4ee\
=6
4.dd\
8cc\
4b\
=7
4a/
4g/
4f#/
=8
2g/
8d/L
8e/J
=9
8f#/L
8g/J
8a/L
8b/J
8cc\L
8dd\J
=10
4cc\
4b\
4g/
=11
!!linebreak:original
4d/
4cc\
8cc\L
8dd\J
=12
4cc\
2b\
=13
4d/
4cc\
4a/
=14
4d/
4b\
4g/
=15
4d/
4a/
4f#/
=16
2.g/
==
*-
